X:275
T: Julia Clifford's
S: "Johnny O'Leary of Sliabh Luachra" (#252)
Z: B.Black
L: 1/8
M: 6/8
R: jig
K: A
e|fdf afe|faf f2e|f/g/af ecA|BcB Bce|
fdf afe|faf afe|f/g/af ec/d/e|ABA A2 :|
B|cBc ece|faf ec/d/e|a2f ecA|Bcc BAB|
c2c ece|faf ece|f/g/af ec/d/e|ABA A2 :|
